X:253
T:Shropshire Lad
M:6/8
L:1/8
K:G
B2 B BcB | B2 A A3 | c2 c cdc | B3 Bc^c |
d2 d ed^c | d2 B G3 | B2 B BAG | A6 |
B2 B BcB | B2 A A3 | d2 d d2 e | d3 c3 |
BAB c2 B | A2 G E3 | DGA  B2 G | A3 G3 ||
e^d=d c3 | e^d=d c3 | e^d=d c2 G | A3 c3 |
BAB c2 B | A2 G E3 | DGA B2 G | A3 G3 :||
